icons/tres.svg

<svg width="16" height="16" viewBox="0 0 16 16" fill="none" xmlns="http://www.w3.org/2000/svg">
<path fill-rule="evenodd" clip-rule="evenodd" d="M5.18069 3.2894C5.68915 3.01807 6.23134 2.83816 6.77956 2.70889C6.99895 3.09905 7.19879 3.52205 7.37305 3.93516C7.57998 3.89857 7.78756 3.88507 7.99593 3.88229H8.00394C8.21192 3.88507 8.41976 3.89857 8.62656 3.93516C8.80094 3.52205 9.00118 3.09947 9.22018 2.70931C9.76867 2.83844 10.3109 3.01835 10.8193 3.28968C10.8076 3.76583 10.7786 4.2218 10.72 4.68515C10.7817 4.72716 10.8444 4.76732 10.9072 4.80748C11.0448 4.89555 11.1825 4.98365 11.3091 5.09144C11.339 5.11574 11.3689 5.13987 11.3988 5.16399C11.557 5.29166 11.7148 5.41901 11.8574 5.5694C12.2007 5.32795 12.5571 5.1081 12.9247 4.91098C13.3231 5.36556 13.6958 5.85632 14 6.40538C13.7709 6.79804 13.5321 7.16621 13.274 7.5156H13.2668L13.266 10.6164V10.6511C13.2631 10.6511 13.2602 10.6515 13.2573 10.6518C13.2544 10.6521 13.2515 10.6525 13.2487 10.6525L11.3011 10.8518C11.2518 10.8568 11.2057 10.8803 11.1711 10.918C11.1364 10.9557 11.1155 11.0052 11.1121 11.0577L11.052 11.9698L9.35232 12.0983L9.23527 11.2565C9.22005 11.1474 9.13174 11.0666 9.02769 11.0666H6.97218C6.92187 11.0666 6.87325 11.0858 6.83517 11.1207C6.79709 11.1555 6.77209 11.2037 6.76473 11.2565L6.64755 12.0983L4.94804 11.9698L4.88794 11.0577C4.88448 11.0052 4.86358 10.9557 4.82897 10.918C4.79435 10.8803 4.74825 10.8568 4.69886 10.8518L2.75056 10.6525C2.74479 10.6511 2.73902 10.6511 2.73312 10.6511H2.73311V7.51518H2.72589C2.46792 7.16593 2.22884 6.79776 2 6.4051C2.30429 5.85604 2.67668 5.36528 3.07506 4.9107C3.4427 5.10774 3.79908 5.32755 4.14237 5.56898C4.28444 5.41938 4.44178 5.29241 4.59922 5.16536C4.6298 5.14069 4.66038 5.11601 4.69085 5.09117C4.81818 4.98267 4.95651 4.89422 5.09497 4.8057C5.157 4.76604 5.21905 4.72637 5.28015 4.68487C5.22136 4.22166 5.19236 3.76541 5.18069 3.2894ZM2.73244 11.749C2.73168 11.7155 2.73048 11.6623 2.72996 11.5304L4.48209 11.7089L4.54245 12.6258C4.54598 12.6793 4.56756 12.7295 4.60324 12.7674C4.63891 12.8054 4.68628 12.8283 4.73665 12.8322L6.81197 12.9892C6.86477 12.9932 6.91706 12.9759 6.95834 12.9407C6.99962 12.9056 7.02683 12.8552 7.03451 12.7996L7.15352 11.9439H8.84687L8.96588 12.7996C8.97321 12.8524 8.99818 12.9006 9.03624 12.9355C9.07429 12.9704 9.1229 12.9896 9.17321 12.9897H9.1883L11.2636 12.8328C11.314 12.8289 11.3614 12.806 11.3972 12.7681C11.4329 12.7302 11.4545 12.6799 11.4581 12.6264L11.5184 11.7094L13.2697 11.5304C13.2691 11.6624 13.2678 11.7152 13.267 11.7487C13.2665 11.7659 13.2662 11.7779 13.2662 11.793C13.2662 13.7551 10.9198 14.698 8.00367 14.7089H7.99646C5.0803 14.698 2.73311 13.7551 2.73311 11.793C2.73311 11.7782 2.73283 11.7662 2.73244 11.749ZM7.14286 8.28032C7.14286 8.9904 6.56722 9.56604 5.85714 9.56604C5.14706 9.56604 4.57143 8.9904 4.57143 8.28032C4.57143 7.57024 5.14706 6.99461 5.85714 6.99461C6.56722 6.99461 7.14286 7.57024 7.14286 8.28032ZM11.4286 8.28033C11.4286 8.99041 10.8529 9.56604 10.1429 9.56604C9.43278 9.56604 8.85715 8.99041 8.85715 8.28033C8.85715 7.57025 9.43278 6.99462 10.1429 6.99462C10.8529 6.99462 11.4286 7.57025 11.4286 8.28033Z" fill="#E49C30"/>
</svg>

<svg xmlns="http://www.w3.org/2000/svg" width="16" height="16" fill="none"><path fill="#E49C30" fill-rule="evenodd" d="M5.18 3.29a6.584 6.584 0 0 1 1.6-.581c.219.39.419.813.593 1.226.207-.036.415-.05.623-.053h.008c.208.003.416.017.623.053C8.8 3.522 9 3.1 9.22 2.71c.549.13 1.09.31 1.6.58-.012.477-.041.933-.1 1.396.062.042.124.082.187.122.138.089.275.177.402.284l.09.073c.158.128.316.255.458.405.344-.241.7-.46 1.068-.658.398.455.77.945 1.075 1.494-.23.393-.468.761-.726 1.11h-.007l-.001 3.101v.035h-.009l-.008.002-1.948.199a.205.205 0 0 0-.13.066.228.228 0 0 0-.059.14l-.06.912-1.7.128-.117-.841a.214.214 0 0 0-.207-.19H6.972c-.05 0-.099.019-.137.054a.226.226 0 0 0-.07.136l-.117.841-1.7-.128-.06-.912a.229.229 0 0 0-.059-.14.205.205 0 0 0-.13-.066l-1.948-.2h-.018V7.514h-.007c-.258-.35-.497-.717-.726-1.11.304-.549.677-1.04 1.075-1.494.368.197.724.417 1.067.658.142-.15.3-.277.457-.404l.092-.074c.127-.108.266-.197.404-.285l.185-.121c-.059-.463-.088-.92-.1-1.396Zm-2.448 8.459c0-.034-.002-.087-.002-.219l1.752.179.06.917a.228.228 0 0 0 .061.141c.036.038.083.061.134.065l2.075.157a.202.202 0 0 0 .146-.048.225.225 0 0 0 .077-.141l.119-.856h1.693l.119.856a.226.226 0 0 0 .07.135.203.203 0 0 0 .137.055h.015l2.076-.157a.206.206 0 0 0 .133-.065.23.23 0 0 0 .061-.142l.06-.917 1.752-.179c0 .132-.002.185-.003.219v.044c0 1.962-2.347 2.905-5.263 2.916h-.008c-2.916-.011-5.263-.954-5.263-2.916v-.044Zm4.41-3.469a1.286 1.286 0 1 1-2.57 0 1.286 1.286 0 0 1 2.57 0Zm4.287 0a1.286 1.286 0 1 1-2.572 0 1.286 1.286 0 0 1 2.572 0Z" clip-rule="evenodd"/></svg>
